static/img/kits/demand-and-capacity-management/demand-and-capacity-management-kit-logo.svg

<?xml version="1.0" encoding="UTF-8"?>
<!DOCTYPE svg PUBLIC "-//W3C//DTD SVG 1.1//EN" "http://www.w3.org/Graphics/SVG/1.1/DTD/svg11.dtd">
<svg xmlns="http://www.w3.org/2000/svg" style="background: transparent; background-color: transparent; color-scheme: light dark;" xmlns:xlink="http://www.w3.org/1999/xlink" version="1.1" width="264px" height="245px" viewBox="-0.5 -0.5 264 245"><defs><linearGradient x1="100%" y1="0%" x2="0%" y2="0%" id="drawio-svg-E1fM-uBKDYvFoSgZrjRU-gradient-light-dark_e5ccff_442e5a_-1-light-dark_b95eff_b567f1_-1-e-0"><stop offset="0%" stop-color="#B95EFF" stop-opacity="1" style="stop-color: light-dark(rgb(185, 94, 255), rgb(181, 103, 241)); stop-opacity: 1;"/><stop offset="100%" stop-color="#E5CCFF" stop-opacity="1" style="stop-color: light-dark(rgb(229, 204, 255), rgb(68, 46, 90)); stop-opacity: 1;"/></linearGradient><style type="text/css">@import url(https://fonts.googleapis.com/css2?family=Manrope:wght@400;500);&#xa;</style></defs><g><g/><g><path d="M 66 130.75 L 109.84 105.48 Q 131.5 93 153.16 105.48 L 240.84 156.02 Q 262.5 168.5 240.84 180.98 L 153.16 231.52 Q 131.5 244 109.84 231.52 L 22.16 180.98 Q 0.5 168.5 22.16 156.02 Z" fill="none" stroke="#b95eff" stroke-opacity="0.4" stroke-miterlimit="10" pointer-events="all" style="stroke: light-dark(rgb(185, 94, 255), rgb(181, 103, 241));"/></g><g><path d="M 66 119.75 L 109.84 94.48 Q 131.5 82 153.16 94.48 L 240.84 145.02 Q 262.5 157.5 240.84 169.98 L 153.16 220.52 Q 131.5 233 109.84 220.52 L 22.16 169.98 Q 0.5 157.5 22.16 145.02 Z" fill-opacity="0.4" fill="url(#drawio-svg-E1fM-uBKDYvFoSgZrjRU-gradient-light-dark_e5ccff_442e5a_-1-light-dark_b95eff_b567f1_-1-e-0)" stroke="none" pointer-events="all" style="fill: url(&quot;#drawio-svg-E1fM-uBKDYvFoSgZrjRU-gradient-light-dark_e5ccff_442e5a_-1-light-dark_b95eff_b567f1_-1-e-0&quot;);"/></g><g><path d="M 66 102.75 L 109.84 77.48 Q 131.5 65 153.16 77.48 L 240.84 128.02 Q 262.5 140.5 240.84 152.98 L 153.16 203.52 Q 131.5 216 109.84 203.52 L 22.16 152.98 Q 0.5 140.5 22.16 128.02 Z" fill="none" stroke="#b95eff" stroke-opacity="0.6" stroke-miterlimit="10" pointer-events="all" style="stroke: light-dark(rgb(185, 94, 255), rgb(181, 103, 241));"/></g><g><path d="M 66 90.75 L 109.84 65.48 Q 131.5 53 153.16 65.48 L 240.84 116.02 Q 262.5 128.5 240.84 140.98 L 153.16 191.52 Q 131.5 204 109.84 191.52 L 22.16 140.98 Q 0.5 128.5 22.16 116.02 Z" fill-opacity="0.48" fill="url(#drawio-svg-E1fM-uBKDYvFoSgZrjRU-gradient-light-dark_e5ccff_442e5a_-1-light-dark_b95eff_b567f1_-1-e-0)" stroke="none" pointer-events="all" style="fill: url(&quot;#drawio-svg-E1fM-uBKDYvFoSgZrjRU-gradient-light-dark_e5ccff_442e5a_-1-light-dark_b95eff_b567f1_-1-e-0&quot;);"/></g><g><path d="M 65.5 76.75 L 109.34 51.48 Q 131 39 152.66 51.48 L 240.34 102.02 Q 262 114.5 240.34 126.98 L 152.66 177.52 Q 131 190 109.34 177.52 L 21.66 126.98 Q 0 114.5 21.66 102.02 Z" fill="none" stroke="#b95eff" stroke-opacity="0.8" stroke-miterlimit="10" pointer-events="all" style="stroke: light-dark(rgb(185, 94, 255), rgb(181, 103, 241));"/></g><g><path d="M 65.5 64.75 L 109.34 39.48 Q 131 27 152.66 39.48 L 240.34 90.02 Q 262 102.5 240.34 114.98 L 152.66 165.52 Q 131 178 109.34 165.52 L 21.66 114.98 Q 0 102.5 21.66 90.02 Z" fill-opacity="0.6400000000000001" fill="url(#drawio-svg-E1fM-uBKDYvFoSgZrjRU-gradient-light-dark_e5ccff_442e5a_-1-light-dark_b95eff_b567f1_-1-e-0)" stroke="none" pointer-events="all" style="fill: url(&quot;#drawio-svg-E1fM-uBKDYvFoSgZrjRU-gradient-light-dark_e5ccff_442e5a_-1-light-dark_b95eff_b567f1_-1-e-0&quot;);"/></g><g><path d="M 66 48.75 L 109.84 23.48 Q 131.5 11 153.16 23.48 L 240.84 74.02 Q 262.5 86.5 240.84 98.98 L 153.16 149.52 Q 131.5 162 109.84 149.52 L 22.16 98.98 Q 0.5 86.5 22.16 74.02 Z" fill="none" stroke="#b95eff" stroke-miterlimit="10" pointer-events="all" style="stroke: light-dark(rgb(185, 94, 255), rgb(181, 103, 241));"/></g><g><path d="M 66 37.75 L 109.84 12.48 Q 131.5 0 153.16 12.48 L 240.84 63.02 Q 262.5 75.5 240.84 87.98 L 153.16 138.52 Q 131.5 151 109.84 138.52 L 22.16 87.98 Q 0.5 75.5 22.16 63.02 Z" fill="url(#drawio-svg-E1fM-uBKDYvFoSgZrjRU-gradient-light-dark_e5ccff_442e5a_-1-light-dark_b95eff_b567f1_-1-e-0)" stroke="none" pointer-events="all" style="fill: url(&quot;#drawio-svg-E1fM-uBKDYvFoSgZrjRU-gradient-light-dark_e5ccff_442e5a_-1-light-dark_b95eff_b567f1_-1-e-0&quot;);"/></g><g><g><svg width="108" height="63" viewBox="0 0 108 63" fill="none" xmlns="http://www.w3.org/2000/svg" x="77" y="43.5" style="font-family: initial;">&#xa;<path d="M49.2172 34.2671L28.7246 46.0975" stroke="white" stroke-width="4"/>&#xa;<path d="M72.6374 50.8604L54.8061 61.1543" stroke="white" stroke-width="4"/>&#xa;<path d="M69.4437 37.647L41.7653 53.6257" stroke="white" stroke-width="4"/>&#xa;<path d="M28.7245 31.0405L15.6838 38.569" stroke="white" stroke-width="4"/>&#xa;<path d="M26.0632 17.52L2.64299 31.0405" stroke="white" stroke-width="4"/>&#xa;<path d="M35.6442 10.4525L35.7329 12.7968C36.0399 20.9065 48.0404 27.2173 62.0557 26.6395V26.6395C77.5891 25.9991 90.225 33.7539 88.1691 42.6655L87.8559 44.0233" stroke="white" stroke-width="4"/>&#xa;</svg></g></g></g></svg>

<svg xmlns="http://www.w3.org/2000/svg" style="background:0 0;background-color:transparent;color-scheme:light dark" xmlns:xlink="http://www.w3.org/1999/xlink" width="264" height="245" viewBox="-.5 -.5 264 245"><defs><linearGradient x1="100%" y1="0%" x2="0%" y2="0%" id="prefix__drawio-svg-E1fM-uBKDYvFoSgZrjRU-gradient-light-dark_e5ccff_442e5a_-1-light-dark_b95eff_b567f1_-1-e-0"><stop offset="0%" stop-color="light-dark(#b95eff ,#b567f1)"/><stop offset="100%" stop-color="light-dark(#e5ccff ,#442e5a)"/></linearGradient><style>@import url(https://fonts.googleapis.com/css2?family=Manrope:wght@400;500);</style></defs><path d="M66 130.75l43.84-25.27q21.66-12.48 43.32 0l87.68 50.54q21.66 12.48 0 24.96l-87.68 50.54q-21.66 12.48-43.32 0l-87.68-50.54q-21.66-12.48 0-24.96z" fill="none" stroke="light-dark(#b95eff ,#b567f1)" stroke-opacity=".4" stroke-miterlimit="10" pointer-events="all"/><path d="M66 119.75l43.84-25.27q21.66-12.48 43.32 0l87.68 50.54q21.66 12.48 0 24.96l-87.68 50.54q-21.66 12.48-43.32 0l-87.68-50.54q-21.66-12.48 0-24.96z" fill-opacity=".4" fill="url(#prefix__drawio-svg-E1fM-uBKDYvFoSgZrjRU-gradient-light-dark_e5ccff_442e5a_-1-light-dark_b95eff_b567f1_-1-e-0)" pointer-events="all"/><path d="M66 102.75l43.84-25.27q21.66-12.48 43.32 0l87.68 50.54q21.66 12.48 0 24.96l-87.68 50.54q-21.66 12.48-43.32 0l-87.68-50.54q-21.66-12.48 0-24.96z" fill="none" stroke="light-dark(#b95eff ,#b567f1)" stroke-opacity=".6" stroke-miterlimit="10" pointer-events="all"/><path d="M66 90.75l43.84-25.27q21.66-12.48 43.32 0l87.68 50.54q21.66 12.48 0 24.96l-87.68 50.54q-21.66 12.48-43.32 0l-87.68-50.54q-21.66-12.48 0-24.96z" fill-opacity=".48" fill="url(#prefix__drawio-svg-E1fM-uBKDYvFoSgZrjRU-gradient-light-dark_e5ccff_442e5a_-1-light-dark_b95eff_b567f1_-1-e-0)" pointer-events="all"/><path d="M65.5 76.75l43.84-25.27q21.66-12.48 43.32 0l87.68 50.54q21.66 12.48 0 24.96l-87.68 50.54q-21.66 12.48-43.32 0l-87.68-50.54q-21.66-12.48 0-24.96z" fill="none" stroke="light-dark(#b95eff ,#b567f1)" stroke-opacity=".8" stroke-miterlimit="10" pointer-events="all"/><path d="M65.5 64.75l43.84-25.27q21.66-12.48 43.32 0l87.68 50.54q21.66 12.48 0 24.96l-87.68 50.54q-21.66 12.48-43.32 0l-87.68-50.54Q0 102.5 21.66 90.02z" fill-opacity=".64" fill="url(#prefix__drawio-svg-E1fM-uBKDYvFoSgZrjRU-gradient-light-dark_e5ccff_442e5a_-1-light-dark_b95eff_b567f1_-1-e-0)" pointer-events="all"/><path d="M66 48.75l43.84-25.27q21.66-12.48 43.32 0l87.68 50.54q21.66 12.48 0 24.96l-87.68 50.54q-21.66 12.48-43.32 0L22.16 98.98Q.5 86.5 22.16 74.02z" fill="none" stroke="light-dark(#b95eff ,#b567f1)" stroke-miterlimit="10" pointer-events="all"/><path d="M66 37.75l43.84-25.27q21.66-12.48 43.32 0l87.68 50.54q21.66 12.48 0 24.96l-87.68 50.54q-21.66 12.48-43.32 0L22.16 87.98Q.5 75.5 22.16 63.02z" fill="url(#prefix__drawio-svg-E1fM-uBKDYvFoSgZrjRU-gradient-light-dark_e5ccff_442e5a_-1-light-dark_b95eff_b567f1_-1-e-0)" pointer-events="all"/><svg width="108" height="63" fill="none" xmlns="http://www.w3.org/2000/svg" x="77" y="43.5" font-family="initial"><path d="M49.217 34.267l-20.492 11.83M72.637 50.86l-17.83 10.294M69.444 37.647L41.765 53.626M28.724 31.04l-13.04 7.529M26.063 17.52L2.643 31.04M35.644 10.453l.089 2.344c.307 8.11 12.307 14.42 26.323 13.843v0c15.533-.64 28.169 7.114 26.113 16.026l-.313 1.357" stroke="#fff" stroke-width="4"/></svg></svg>
